!! Isochronous pitch passage.
!! Treble-line.
!! From Brahms, Sextet No. 2, 4th movement, measure 137ff
!! First violin
!! 9/8 meter
**kern	**metpos
*M9/8	*M9/8
*tb16	*tb16
=137	=137
16gg	1
16gg	4
16gg	3
16gg	4
16gg	3
16gg	4
16ddd	2
16ddd	4
16aa	3
16aa	4
16aa	3
16aa	4
16bb	2
16bb	4
16aa	3
16aa	4
16aa	3
16aa	4
=138	=138
16gg	1
16ff	4
16ee	3
16ff	4
16gg	3
16aa	4
16ff	2
16ee	4
16dd	3
16ee	4
16ff	3
16aa	4
16gg	2
16ff	4
16ee	3
16ff	4
16gg	3
16aa	4
=139	=139
16ff	1
16ee	4
16dd	3
16ee	4
16dd	3
16cc	4
16b	2
16cc#	4
16dd	3
16dd	4
16dd	3
16dd	4
16gg	2
16gg	4
16ff#	3
16ff#	4
16ff#	3
16ff#	4
=140	=140
16aa	1
16aa	4
16aa	3
16aa	4
16aa	3
16aa	4
16ddd	2
16ddd	4
16aa	3
16aa	4
16aa	3
16aa	4
16bb	2
16bb	4
16aa	3
16aa	4
16aa	3
16aa	4
=141	=141
16gg#	1
16ff#	4
16ee	3
16ffn	4
16ee	3
16dd	4
16cc	2
16dd	4
16ee	3
16ee	4
16ee	3
16ee	4
16aa	2
16aa	4
16gg#	3
16gg#	4
16gg#	3
16gg#	4
=142	=142
16bb	1
16bb	4
16bb	3
16bb	4
16bb	3
16bb	4
16eee	2
16eee	4
16bb	3
16bb	4
16bb	3
16bb	4
16ccc	2
16ccc	4
16bb	3
16bb	4
16bb	3
16bb	4
=143	=143
16aa	1
16gg#	4
16ff#	3
16gg#	4
16aa	3
16bb	4
16gg#	2
16ff#	4
16ee	3
16ff#	4
16gg#	3
16bb	4
16aa	2
16gg#	4
16ff#	3
16gg#	4
16aa	3
16bb	4
=144	=144
16ggn	1
16ff#	4
16ee	3
16ff#	4
16gg	3
16aa	4
16ff#	2
16ee	4
16dd	3
16ee	4
16ff#	3
16aa	4
16gg	2
16ff#	4
16ee	3
16ff#	4
16gg	3
16aa	4
=145	=145
16ffn	1
16ee	4
16dd	3
16ee	4
16ff	3
16gg	4
16ff	2
16ee	4
16dd	3
16ee	4
16ff	3
16gg	4
16aa	2
16gg	4
16aa	3
16bb	4
16ccc	3
16ddd	4
=146	=146
16eee	1
16ddd	4
16ccc	3
16bb	4
16aa	3
16gg	4
16ff#	2
16r	4
16r	3
16r	4
16d	3
16d	4
16a	2
16a	4
16cc	3
16cc	4
16d	3
16d	4
=147	=147
16dd	1
16dd	4
16dd	3
16dd	4
16dd	3
16dd	4
16gg	2
16gg	4
16dd	3
16dd	4
16dd	3
16dd	4
16ee	2
16ee	4
16dd	3
16dd	4
16dd	3
16dd	4
=148	=148
16ee	1
16ee	4
16ee	3
16ee	4
16ee	3
16ee	4
16aa	2
16aa	4
16ee	3
16ee	4
16ee	3
16ee	4
16ff#	2
16ff#	4
16ee	3
16ee	4
16ee	3
16ee	4
=149	=149
16ff#	1
16ff#	4
16ff#	3
16ff#	4
16ff#	3
16ff#	4
16bb	2
16bb	4
16ff#	3
16ff#	4
16ff#	3
16ff#	4
16gg	2
16gg	4
16gg	3
16gg	4
16gg	3
16gg	4
=150	=150
16ccc	1
16ccc	4
16aa	3
16aa	4
16aa	3
16aa	4
16ddd	2
16ddd	4
16bb	3
16bb	4
16bb	3
16bb	4
16eee	2
16eee	4
16ccc	3
16ccc	4
16ccc	3
16ccc	4
=151	=151
*-	*-
